X:1
T: Jack's Health
N:
C:
S:
A:
O:
R:
M:6/8
K:Am
I:speed 170
%W:           A
% voice 1 (1 lines, 34 notes)
K:Am
M:6/8
L:1/16
e2 |e2 c2 A2 A4 B2 G4 E2 E4 B2 c4 A2 B4 G2 A4 B2 c4 d2 |e2 c2 A2 A4 B2 G4 E2 E4 B2 c4 A2 B4 G2 A6 g4 f2 |
%W:
% voice 1 (1 lines, 33 notes)
e2 c2 A2 A4 B2 G4 E2 E4 B2 c4 A2 B4 G2 A4 B2 c4 d2 |e2 c2 A2 A4 B2 G4 E2 E4 B2 c4 A2 B4 G2 A6 A4 B2 |
%W:         B
% voice 1 (1 lines, 31 notes)
c2 B2 A2 G4 d2 e6 d4 B2 c4 A2 B4 G2 A4 B2 c4 d2 |e2 c2 A2 A4 d2 e6 d4 B2 c4 A2 B4 A2 G6 g4 e2 |
%W:
% voice 1 (1 lines, 34 notes)
d2 B2 G2 G4 d2 e6 d4 B2 c4 A2 B4 G2 A4 B2 c4 d2 |e2 c2 A2 A4 d2 e4 a2 a4 ^f2 g4 e2 d4 B2 A6 g4 f2 |A6A4||
